openmetadata-ui/src/main/resources/ui/src/assets/svg/icon-down.svg

<svg xmlns="http://www.w3.org/2000/svg" width="513" height="513" fill="none"><path fill="#37352F" d="M437.021 74.98a256.002 256.002 0 1 0-362.04 362.042A256.002 256.002 0 0 0 437.02 74.981Zm-181.02 405.021c-123.514 0-224-100.486-224-224s100.486-224 224-224 224 100.486 224 224-100.486 224-224 224Zm112.634-275.973a16.002 16.002 0 0 1 0 22.627l-101.321 101.32a16.002 16.002 0 0 1-22.626 0l-101.32-101.32a15.998 15.998 0 0 1 .068-22.559 15.998 15.998 0 0 1 22.559-.068l90.006 90.006 90.007-90.006a15.996 15.996 0 0 1 22.627 0Z"/></svg>

<svg width="513" height="513" viewBox="0 0 513 513" fill="none" xmlns="http://www.w3.org/2000/svg">
<path d="M437.021 74.9809C389.011 26.9715 323.897 0 256.001 0C188.105 0 122.99 26.9715 74.9809 74.9809C26.9715 122.99 0 188.105 0 256.001C0 323.897 26.9715 389.011 74.9809 437.021C122.99 485.03 188.105 512.002 256.001 512.002C323.897 512.002 389.011 485.03 437.021 437.021C485.03 389.011 512.002 323.897 512.002 256.001C512.002 188.105 485.03 122.99 437.021 74.9809ZM256.001 480.001C132.487 480.001 32.0009 379.515 32.0009 256.001C32.0009 132.487 132.487 32.0009 256.001 32.0009C379.515 32.0009 480.001 132.487 480.001 256.001C480.001 379.515 379.515 480.001 256.001 480.001V480.001ZM368.635 204.028C371.635 207.029 373.321 211.098 373.321 215.341C373.321 219.585 371.635 223.654 368.635 226.655L267.314 327.975C264.313 330.975 260.244 332.661 256.001 332.661C251.758 332.661 247.688 330.975 244.688 327.975L143.368 226.655C140.397 223.648 138.737 219.588 138.75 215.362C138.763 211.135 140.448 207.085 143.436 204.096C146.425 201.108 150.475 199.423 154.702 199.41C158.928 199.397 162.988 201.057 165.995 204.028L256.001 294.034L346.008 204.028C349.008 201.027 353.078 199.342 357.321 199.342C361.565 199.342 365.634 201.027 368.635 204.028V204.028Z" fill="#37352F"/>
</svg>
